DVA
CUT[Ach schoenster Schatz, mein Augentrost,
    hast meiner ganz vergessen ?]
REG[Europa, Mitteleuropa, Deutschland, Untermainfranken, Spessart]
KEY[D0179  16  G 3/4]
MEL[    -5_  -5_-6-71__3__  2_2_1_
    2_3_4_  5_.65_3_4_5_  3__0__0_
    -5_  1_3_5__6_5_  4_3_5__.
    6_  3_2_3_5_4_3_  2_1_2_
    -5_1_3_  5_6_5__4_5_  3__0__0_ //] >>
FCT[Liebes - Lied, Liebeslust]
CMT[Inzipit = Variante zum Lied; Verzierung]
